symbols/web/notifications_active/materialsymbolsoutlined/notifications_active_wght500grad200fill1_48px.svg

<svg xmlns="http://www.w3.org/2000/svg" height="48" width="48"><path d="M4.45 19.85q0-4.3 1.825-8.25T11.4 4.8L14 7.55Q11.2 9.9 9.7 13.1q-1.5 3.2-1.5 6.75Zm35.45 0q0-3.55-1.45-6.75t-4.2-5.55l2.6-2.75q3.25 2.9 5.025 6.8 1.775 3.9 1.775 8.25ZM7.15 38.3v-3.9h4.35V19.85q0-4.2 2.525-7.675Q16.55 8.7 20.75 7.65v-1.4q0-1.35.95-2.225T24 3.15q1.35 0 2.3.875.95.875.95 2.225v1.4q4.2 1 6.775 4.475Q36.6 15.6 36.6 19.85V34.4h4.25v3.9ZM24 44.75q-1.75 0-3.025-1.25T19.7 40.45h8.6q0 1.8-1.25 3.05-1.25 1.25-3.05 1.25Z"/></svg>

<svg xmlns="http://www.w3.org/2000/svg" height="48" width="48"><path d="M4.45 19.85Q4.45 15.55 6.275 11.6Q8.1 7.65 11.4 4.8L14 7.55Q11.2 9.9 9.7 13.1Q8.2 16.3 8.2 19.85ZM39.9 19.85Q39.9 16.3 38.45 13.1Q37 9.9 34.25 7.55L36.85 4.8Q40.1 7.7 41.875 11.6Q43.65 15.5 43.65 19.85ZM7.15 38.3V34.4H11.5V19.85Q11.5 15.65 14.025 12.175Q16.55 8.7 20.75 7.65V6.25Q20.75 4.9 21.7 4.025Q22.65 3.15 24 3.15Q25.35 3.15 26.3 4.025Q27.25 4.9 27.25 6.25V7.65Q31.45 8.65 34.025 12.125Q36.6 15.6 36.6 19.85V34.4H40.85V38.3ZM24 44.75Q22.25 44.75 20.975 43.5Q19.7 42.25 19.7 40.45H28.3Q28.3 42.25 27.05 43.5Q25.8 44.75 24 44.75Z"/></svg>
